modules/feathericon/icons/logout.svg

<?xml version="1.0" encoding="UTF-8"?>
<svg width="24px" height="24px" viewBox="0 0 24 24" version="1.1" xmlns="http://www.w3.org/2000/svg" xmlns:xlink="http://www.w3.org/1999/xlink">
    <!-- Generator: sketchtool 52.2 (67145) - http://www.bohemiancoding.com/sketch -->
    <title>logout</title>
    <desc>Created with sketchtool.</desc>
    <g id="web-app" stroke="none" stroke-width="1" fill="none" fill-rule="evenodd">
        <g id="logout" fill="#000000">
            <path d="M3,5 C3,3.9000001 3.9000001,3 5,3 C5,3 7.66666667,3 13,3 L13,5 L5,5 L5,19 L13,19 L13,21 C7.66666667,21 5,21 5,21 C3.9000001,21 3,20.1000004 3,19 C3,9.6236114 3,5 3,5 Z M17.1757866,11 L14.6402527,8.46446609 L16.0544662,7.05025253 L21.0042137,12 L16.0544662,16.9497475 L14.6402527,15.5355339 L17.1757866,13 L10.5900002,13 L10.5900002,11 L17.1757866,11 Z" id="Shape"></path>
        </g>
    </g>
</svg>

<svg width="24" height="24" viewBox="0 0 24 24" xmlns="http://www.w3.org/2000/svg"><path d="M3 5c0-1.1.9-2 2-2h8v2H5v14h8v2H5c-1.1 0-2-.9-2-2V5zm14.176 6L14.64 8.464l1.414-1.414 4.95 4.95-4.95 4.95-1.414-1.414L17.176 13H10.59v-2h6.586z" fill="#000" fill-rule="evenodd"/></svg>
